src/copy/assets/hearth.svg

<svg xmlns="http://www.w3.org/2000/svg" xmlns:xlink="http://www.w3.org/1999/xlink" width="112" height="26" viewBox="0 0 112 26">
  <defs>
    <polygon id="hearth-a" points="0 .33 51.889 .33 51.889 19.89 0 19.89"/>
    <polygon id="hearth-c" points=".11 .227 16.68 .227 16.68 26 .11 26"/>
    <polygon id="hearth-e" points=".268 .227 16.839 .227 16.839 26 .268 26"/>
  </defs>
  <g fill="none" fill-rule="evenodd">
    <path fill="#000" d="M65.5356805,25 C62.2914254,23.50751 60.2734472,20.7182145 60.0281918,17.851703 C59.8919389,16.4121007 60.2504993,14.9365348 61.0837938,13.5995346 C61.9084829,12.2540724 63.291092,11.1254495 64.8787977,10.244341 C68.0943679,8.52654961 72.418607,7.8421832 76.3312188,8.75608208 C78.2703137,9.21091601 79.9914039,10.0169241 81.4973578,10.943516 C83.0090487,11.8722234 84.327117,12.9162259 85.6121977,13.9454199 C88.1393318,16.0059234 90.6635974,18.0939285 93.9508797,19.1358155 C97.196569,20.1956844 101.099141,20.008462 104.35487,18.9052253 C105.974129,18.3308652 107.452832,17.5174529 108.584449,16.4808547 C109.7175,15.4474297 110.536452,14.210916 110.952382,12.8918976 C111.871731,10.2623228 111.226323,7.32282632 109.107947,5 C111.551895,7.16099006 112.46981,10.1977999 111.774203,13.0209435 C111.435722,14.4393907 110.641152,15.806008 109.473679,16.989634 C108.301903,18.1753755 106.699855,19.1083139 104.947212,19.7895071 C101.420411,21.119103 97.0861323,21.3803681 93.3226818,20.24011 C91.4538646,19.669981 89.818829,18.7983922 88.3688105,17.8379522 C86.9144892,16.8743389 85.6251058,15.8229321 84.3471964,14.7979691 C83.0778923,13.7677174 81.8157595,12.7565052 80.4216765,11.8880897 C79.0361989,11.0186165 77.4929546,10.313095 75.8306684,9.89105141 C72.4974903,9.03850222 68.6164319,9.59276497 65.6461171,11.0482336 C64.1788877,11.8002962 62.9067152,12.7861223 62.0863289,13.9634017 C61.2587713,15.1375079 60.8371042,16.4797969 60.8643548,17.8316057 C60.8313673,20.5373387 62.5338123,23.2811508 65.5356805,25"/>
    <g transform="translate(0 5)">
      <mask id="hearth-b" fill="#fff">
        <use xlink:href="#hearth-a"/>
      </mask>
      <path fill="#000" d="M46.3650606,19.8902759 C49.361978,18.2092414 51.0608037,15.5257931 51.0278862,12.8795862 C51.0550789,11.5575172 50.6343083,10.2447586 49.8070789,9.09648276 C48.9884367,7.94510345 47.7189688,6.98096552 46.2548587,6.24544828 C43.2908587,4.822 39.4180514,4.27993103 36.0919596,5.11372414 C34.4332073,5.52648276 32.8946752,6.21648276 31.5121431,7.06682759 C30.1210239,7.91613793 28.8615743,8.90510345 27.5949688,9.91268966 C26.318345,10.9151034 25.0317028,11.9433793 23.5819046,12.8857931 C22.1335376,13.8251034 20.5034092,14.6775172 18.6371339,15.2351034 C14.8816844,16.3502759 10.5580514,16.0947586 7.03731743,14.7944138 C5.2884,14.1282069 3.69118899,13.2157931 2.52047339,12.0561379 C1.35548257,10.8985517 0.564033028,9.562 0.224840367,8.17475862 C-0.469288073,5.41372414 0.446675229,2.44372414 2.88542752,0.330275862 C0.771555963,2.602 0.127519266,5.47682759 1.04634495,8.04855172 C1.45995963,9.33855172 2.27717064,10.5478621 3.40781284,11.5585517 C4.53702385,12.5723448 6.01258349,13.3678621 7.62983119,13.9295862 C10.8772073,15.0085517 14.7714826,15.1916552 18.0102716,14.1551034 C21.2919963,13.1361379 23.8094642,11.094069 26.3326569,9.07889655 C27.6135743,8.07234483 28.9288404,7.05131034 30.4373174,6.14303448 C31.9400697,5.23682759 33.6589321,4.44855172 35.5939046,4.00372414 C39.4981982,3.10993103 43.8118128,3.77924138 47.021978,5.45924138 C48.6063083,6.32096552 49.985978,7.42475862 50.8089138,8.74062069 C51.6404367,10.0482069 51.9968037,11.4913103 51.8608404,12.8992414 C51.6175376,15.7026897 49.6024183,18.4306207 46.3650606,19.8902759" mask="url(#hearth-b)"/>
    </g>
    <g transform="translate(54)">
      <mask id="hearth-d" fill="#fff">
        <use xlink:href="#hearth-c"/>
      </mask>
      <path fill="#000" d="M0.390805714,5.87415263 C-0.01428,5.07362632 0.0294342857,4.15917895 0.452005714,3.33504737 C0.877491429,2.51502105 1.62209143,1.76170526 2.63043429,1.20236316 C3.65480571,0.651231579 4.91669143,0.331021053 6.20043429,0.249942105 C7.48709143,0.166810526 8.79414857,0.309468421 10.0006629,0.635836842 C12.4617771,1.26907368 14.3414914,2.7326 15.4154057,4.35007368 C16.5140914,5.98807368 16.8128057,7.83236316 16.6306629,9.58120526 C16.4237486,11.3433895 15.7709486,13.0265474 14.9156057,14.6460737 C14.0340343,16.2614947 12.9003771,17.8050737 11.5058914,19.2193368 C8.76937714,22.0755737 5.02889143,24.4227579 0.782777143,26.0002053 C4.66752,24.0142842 7.92423429,21.5223895 10.3634914,18.7010474 C11.5670914,17.2837053 12.6191486,15.8037579 13.3666629,14.2458105 C14.1345771,12.6981263 14.7363771,11.0939947 14.8937486,9.48678421 C15.0904629,7.88470526 14.8252629,6.26825789 13.9174629,4.82936316 C13.0490057,3.38636316 11.5029771,2.1476 9.48629143,1.51846842 C7.49000571,0.888310526 5.01432,0.840073684 3.12003429,1.69088947 C2.17289143,2.10654737 1.38749143,2.73054737 0.876034286,3.45923158 C0.386434286,4.19304737 0.16932,5.03975789 0.390805714,5.87415263" mask="url(#hearth-d)"/>
    </g>
    <g transform="translate(41)">
      <mask id="hearth-f" fill="#fff">
        <use xlink:href="#hearth-e"/>
      </mask>
      <path fill="#000" d="M16.5588257,5.87415263 C16.7788543,5.03975789 16.5631971,4.19304737 16.0735971,3.45923158 C15.5606829,2.73054737 14.77674,2.10654737 13.82814,1.69088947 C11.9353114,0.840073684 9.45962571,0.888310526 7.46334,1.51846842 C5.44665429,2.1476 3.90062571,3.38636316 3.03216857,4.82936316 C2.12436857,6.26825789 1.85916857,7.88470526 2.05442571,9.48678421 C2.21325429,11.0939947 2.81505429,12.6981263 3.58296857,14.2458105 C4.32902571,15.8037579 5.38108286,17.2837053 6.58468286,18.7010474 C9.02539714,21.5223895 12.2806543,24.0142842 16.1653971,26.0002053 C11.92074,24.4227579 8.17879714,22.0755737 5.44374,19.2193368 C4.04925429,17.8050737 2.91414,16.2614947 2.03256857,14.6460737 C1.17868286,13.0265474 0.525882857,11.3433895 0.317511429,9.58120526 C0.136825714,7.83236316 0.434082857,5.98807368 1.53276857,4.35007368 C2.60668286,2.7326 4.48639714,1.26907368 6.94896857,0.635836842 C8.15402571,0.309468421 9.46254,0.166810526 10.74774,0.249942105 C12.0314829,0.331021053 13.2948257,0.651231579 14.31774,1.20236316 C15.32754,1.76170526 16.0706829,2.51502105 16.4976257,3.33504737 C16.91874,4.15917895 16.9624543,5.07362632 16.5588257,5.87415263" mask="url(#hearth-f)"/>
    </g>
  </g>
</svg>

<svg xmlns="http://www.w3.org/2000/svg" xmlns:xlink="http://www.w3.org/1999/xlink" width="112" height="26"><defs><path id="a" d="M0 .33h51.889v19.56H0z"/><path id="c" d="M.11.227h16.57V26H.11z"/><path id="e" d="M.268.227h16.571V26H.268z"/></defs><g fill="none" fill-rule="evenodd"><path fill="#000" d="M65.536 25c-3.245-1.492-5.263-4.282-5.508-7.148-.136-1.44.222-2.915 1.056-4.252.824-1.346 2.207-2.475 3.795-3.356 3.215-1.717 7.54-2.402 11.452-1.488 1.94.455 3.66 1.26 5.166 2.188 1.512.928 2.83 1.972 4.115 3.001 2.527 2.06 5.052 4.149 8.339 5.19 3.246 1.06 7.148.873 10.404-.23 1.62-.574 3.098-1.388 4.23-2.424 1.133-1.034 1.951-2.27 2.367-3.59.92-2.629.274-5.568-1.844-7.891 2.444 2.161 3.362 5.198 2.666 8.02-.338 1.42-1.133 2.786-2.3 3.97-1.172 1.185-2.774 2.118-4.527 2.8-3.527 1.33-7.86 1.59-11.624.45-1.87-.57-3.504-1.442-4.954-2.402-1.455-.964-2.744-2.015-4.022-3.04-1.27-1.03-2.531-2.041-3.925-2.91-1.386-.87-2.929-1.575-4.591-1.997-3.334-.852-7.215-.298-10.185 1.157-1.467.752-2.74 1.738-3.56 2.915-.827 1.175-1.249 2.517-1.222 3.869-.033 2.705 1.67 5.45 4.672 7.168"/><g transform="translate(0 5)"><mask id="b" fill="#fff"><use xlink:href="#a"/></mask><path fill="#000" d="M46.365 19.89c2.997-1.68 4.696-4.364 4.663-7.01.027-1.322-.394-2.635-1.22-3.784-.82-1.15-2.089-2.115-3.553-2.85-2.964-1.424-6.837-1.966-10.163-1.132-1.659.412-3.197 1.102-4.58 1.953-1.391.85-2.65 1.838-3.917 2.846-1.277 1.002-2.563 2.03-4.013 2.973-1.448.94-3.079 1.792-4.945 2.35-3.755 1.114-8.079.859-11.6-.442-1.749-.666-3.346-1.578-4.517-2.738C1.355 10.9.564 9.562.225 8.175-.47 5.414.447 2.444 2.885.33.772 2.602.128 5.477 1.046 8.05c.414 1.29 1.231 2.499 2.362 3.51 1.129 1.013 2.605 1.809 4.222 2.37 3.247 1.08 7.141 1.263 10.38.226 3.282-1.019 5.8-3.06 8.323-5.076 1.28-1.007 2.596-2.028 4.104-2.936 1.503-.906 3.222-1.694 5.157-2.14 3.904-.893 8.218-.224 11.428 1.456 1.584.862 2.964 1.966 3.787 3.282.831 1.307 1.188 2.75 1.052 4.158-.243 2.804-2.259 5.532-5.496 6.991" mask="url(#b)"/></g><g transform="translate(54)"><mask id="d" fill="#fff"><use xlink:href="#c"/></mask><path fill="#000" d="M.39 5.874c-.404-.8-.36-1.715.062-2.539.425-.82 1.17-1.573 2.178-2.133C3.655.652 4.917.331 6.2.25 7.487.167 8.794.31 10 .636c2.462.633 4.341 2.097 5.415 3.714 1.1 1.638 1.398 3.482 1.216 5.231-.207 1.762-.86 3.446-1.715 5.065a20.503 20.503 0 01-3.41 4.573C8.769 22.076 5.029 24.423.783 26c3.885-1.986 7.141-4.478 9.58-7.299 1.204-1.417 2.256-2.897 3.004-4.455.768-1.548 1.37-3.152 1.527-4.76.196-1.601-.069-3.218-.977-4.657-.868-1.443-2.414-2.681-4.43-3.31C7.49.888 5.013.84 3.12 1.69c-.947.416-1.733 1.04-2.244 1.768-.49.734-.707 1.58-.485 2.415" mask="url(#d)"/></g><g transform="translate(41)"><mask id="f" fill="#fff"><use xlink:href="#e"/></mask><path fill="#000" d="M16.559 5.874c.22-.834.004-1.681-.485-2.415-.513-.728-1.297-1.352-2.246-1.768C11.935.84 9.46.888 7.463 1.518c-2.016.63-3.562 1.868-4.43 3.311-.909 1.44-1.174 3.056-.979 4.658.16 1.607.761 3.211 1.529 4.759.746 1.558 1.798 3.038 3.002 4.455 2.44 2.821 5.696 5.313 9.58 7.3-4.244-1.578-7.986-3.925-10.721-6.782a20.51 20.51 0 01-3.411-4.573C1.179 13.026.526 11.343.318 9.581c-.181-1.749.116-3.593 1.215-5.23C2.607 2.732 4.486 1.268 6.949.635A11.774 11.774 0 0110.748.25c1.283.081 2.547.401 3.57.952 1.01.56 1.753 1.313 2.18 2.133.42.824.464 1.739.06 2.54" mask="url(#f)"/></g></g></svg>
